src/assets/img/brands/goby.svg

<svg viewBox="0 0 322 83" fill="none" xmlns="http://www.w3.org/2000/svg">
<path fill-rule="evenodd" clip-rule="evenodd" d="M39.324 37.7268V51.833H64.6943C60.6996 61.7732 51.0372 68.2536 40.3365 68.1696C26.4766 67.7039 15.4814 56.3191 15.4814 42.4337C15.4814 28.5483 26.4766 17.1635 40.3365 16.6978C49.2037 16.6637 57.4869 21.1212 62.3511 28.5447H79.3033C73.1577 12.377 57.6129 1.74633 40.3365 1.89647C18.1008 2.42141 0.448584 20.8029 0.796059 43.0704C1.14353 65.338 19.3606 83.1583 41.6019 82.9875C63.8431 82.8166 81.7849 64.7185 81.7911 42.4482C81.7861 40.8797 81.6895 39.3129 81.5018 37.7558H39.324V37.7268Z" fill="currentColor"/>
<path fill-rule="evenodd" clip-rule="evenodd" d="M91.0488 42.4483C90.6843 25.6013 100.542 10.2101 115.986 3.51387C131.429 -3.18231 149.385 0.149488 161.406 11.9422C173.428 23.7348 177.123 41.6409 170.753 57.2383C164.383 72.8357 149.217 83.0196 132.388 83C121.532 83.1236 111.072 78.9177 103.317 71.3102C95.562 63.7026 91.148 53.3185 91.0488 42.4483ZM157.903 42.4483C157.775 28.3894 146.315 17.0822 132.273 17.1618C118.232 17.2414 106.9 28.6778 106.932 42.7373C106.963 56.7967 118.346 68.1821 132.388 68.1986C139.202 68.2382 145.746 65.5313 150.545 60.6876C155.345 55.8439 157.996 49.2707 157.903 42.4483Z" fill="currentColor"/>
<path fill-rule="evenodd" clip-rule="evenodd" d="M184.633 3.19995H213.995C231.844 3.19995 240.754 10.9337 240.754 25.2427C240.936 31.5245 237.583 37.3774 232.076 40.3917C239.349 43.3112 243.989 50.5114 243.647 58.3503C243.647 73.9337 233.985 81.6675 216.136 81.6675H184.633V3.19995ZM199.936 16.9586V34.3379H214.4C223.397 34.3379 225.306 29.5586 225.306 25.2137C225.306 20.8689 222.414 16.9296 215.152 16.9296H199.936V16.9586ZM199.936 48.3572V67.9379H216.744C225.422 67.9379 228.17 62.9268 228.17 58.0317C228.17 53.1365 225.277 48.3572 216.744 48.3572H199.936Z" fill="currentColor"/>
<path fill-rule="evenodd" clip-rule="evenodd" d="M303.874 3.19995L284.492 36.1917L264.532 3.19995H246.307L276.132 50.4137L257.733 81.6675H275.322L321.347 3.19995H303.874Z" fill="currentColor"/>
</svg>

<svg viewBox="0 0 322 83" fill="none" xmlns="http://www.w3.org/2000/svg"><path fill-rule="evenodd" clip-rule="evenodd" d="M39.324 37.727v14.106h25.37A26.036 26.036 0 0140.336 68.17c-13.86-.466-24.855-11.85-24.855-25.736 0-13.886 10.996-25.27 24.855-25.736a26.2 26.2 0 0122.015 11.847h16.952C73.158 12.377 57.613 1.746 40.337 1.896 18.1 2.421.449 20.803.797 43.07c.347 22.268 18.564 40.088 40.805 39.917 22.241-.17 40.183-18.268 40.19-40.539a40.281 40.281 0 00-.29-4.692H39.324v-.03zM91.049 42.448c-.365-16.847 9.493-32.238 24.937-38.934a41.357 41.357 0 0145.42 8.428c12.022 11.793 15.717 29.699 9.347 45.296-6.37 15.598-21.536 25.782-38.365 25.762a40.85 40.85 0 01-29.071-11.69 40.955 40.955 0 01-12.268-28.862zm66.854 0c-.128-14.059-11.588-25.366-25.63-25.286-14.041.08-25.373 11.516-25.341 25.575.031 14.06 11.414 25.445 25.456 25.462a25.353 25.353 0 0018.157-7.511 25.42 25.42 0 007.358-18.24zM184.633 3.2h29.362c17.849 0 26.759 7.734 26.759 22.043a16.717 16.717 0 01-8.678 15.149 18.48 18.48 0 0111.571 17.958c0 15.584-9.662 23.318-27.511 23.318h-31.503V3.2zm15.303 13.759v17.379H214.4c8.997 0 10.906-4.78 10.906-9.124 0-4.345-2.892-8.284-10.154-8.284h-15.216v.029zm0 31.398v19.58h16.808c8.678 0 11.426-5.01 11.426-9.905s-2.893-9.675-11.426-9.675h-16.808zM303.874 3.2l-19.382 32.992L264.532 3.2h-18.225l29.825 47.214-18.399 31.254h17.589L321.347 3.2h-17.473z" fill="currentColor"/></svg>
